X: 441
T: A Tune For Emily Ball
R: reel
M: 4/4
K: Amajor
A2BA GAEA|cAA2 agec|dedB B2de|dBB2 BAGE|
A2BA GAEA|cAA2 agec|dedB BADE|GABd cAA2:|
A2GE AGED|DECE DECE|B,3D CA,B,2|B,DCA, B,DE/F/G|
A2GE AGEF|FEFA GEDB|cAAc BAE/F/G|AGGA FAEG:|

